**kern	**kern
*staff2	*staff1
*clefG2	*clefG2
*k[f#c#]	*k[f#c#]
*M3/4	*M3/4
*D:	*D
*clefF4	*clefG2
=57:|!|:	=57:|!|:
16r	4a 4cc# 4ee
16AA'LL	.
16BB'	.
16C#'JJ	.
16D'LL	4a 4cc# 4ee
16E'	.
16F#'	.
16G#'JJ	.
16A'LL	4a 4cc# 4ee
16B'	.
16c#'	.
16d'JJ	.
=58	=58
(16eLL	[4.cc# [4.ee
16d	.
16c#	.
16BJJ	.
16ALL	.
16G	.
16F#	16cc#LL] 16ee]
16EJJ	16ddJJ 16ff#
16DLL	8ee 8gg
16C#	.
16BB	8r
16AAJJ)	.
=59	=59
16r	4a 4dd 4ff#
16D'LL	.
16E'	.
16F#'JJ	.
16G'LL	4a 4dd 4ff#
16A'	.
16B'	.
16c#'JJ	.
16d'LL	4a 4dd 4ff#
16e'	.
16f#'	.
16g'JJ	.
=60	=60
(16aLL	[4.dd [4.ff#
16g	.
16f#	.
16eJJ	.
16dLL	.
16c#	.
16B	16ddLL] 16ff#]
16AJJ	16eeJJ 16gg
16GLL	8ff# 8aa
16F#	.
16E	8r
16DJJ)	.
=61	=61
16r	(4ddd
16dLL	.
16c#	.
16dJJ	.
16cLL	8ff#L)
16d	.
16B	8gg'J
16dJJ	.
16ALL	8aa'L
16d	.
16G	8bb'J
16dJJ	.
=62	=62
16F#LL	(8.aaL
16d	.
16c#	.
16dJJ	16dddJk
16cLL	8ff#L)
16d	.
16B	(8ggJ
16dJJ	.
16ALL	8aa'L)
16d	.
16G	8bb'J
16dJJ	.
=63	=63
16F#LL	(8bbL
16d	.
16A	16aaJk)
16dJJ	16r
16ELL	(8aaL
16c#	.
16A	16ggJk)
16c#JJ	16r
16DLL	(8ggL
16d	.
16A	16ff#Jk)
16dJJ	16r
=64	=64
4A 4c#	(16eeLL
.	16a
.	16b
.	16ccJJ
4r	16cc#LL
.	16dd
.	16dd#
.	16eeJJ
4r	16ee#LL
.	16ff#
.	16gg
.	16gg#JJ)
=	=
*-	*-
